X:460
T:Twenty-Eighth of January
C:Traditional
N:Transcribed by Kim Davis and Mike Stangeland
R:bluegrass
L:1/8
Q:1/4=210
M:4/4
K:G
|: "Am"[EA,]A, CC "D"DD FF | "Am"[EA,]A, CC "D"D2 F2 | "Am"AB cB "G"AG EG | "Am"AB cB "G"AG EG | 
"Am"A,A, CC "D"DD FF | "Am"A,A, CC "D"D2 D2 | "Am"Ac ea (3"G"gfe BA | "E"EG A2 "Am"A4 :|: "A"ea z2 ab ag | 
eg ab a2 gf | "G"ef ga ba gf | ef ga ba gf | "A"ea z2 ab ag | eg ab a2 gf | "G"ef gf ed BA | 
"E"EG A2 "A"A4 :| z8 | z8 | 


